X:1
T:Étude Op. 10 No. 11 in E♭ major
T:Étude Op. 10 No. 11 in E♭ major 
T:"Arpeggio"
T:Frédéric Chopin 
C:Frédéric Chopin
%%score { ( 1 4 ) | ( 2 3 ) }
L:1/8
Q:1/4=52
M:3/4
K:Eb
V:1 treble nm="鋼琴" snm="Pno."
V:4 treble 
V:2 bass 
V:3 bass 
V:1
!f!"^Allegretto" (b | %1
[Q:1/4=76] !arpeggio!.[Bge'])!p!(!arpeggio![Bgb]!arpeggio![Bg=a]!arpeggio![Bgb]!arpeggio![Bgc']!arpeggio![Bgb] | %2
 !arpeggio!.[Baf'])(!arpeggio![Bab]!arpeggio![B_a=a]!arpeggio![B_ab]!arpeggio![Bac']!arpeggio![Bab] | %3
 !arpeggio!.[Bgbg'])(!arpeggio![Bdbd']!arpeggio![Bebe']!arpeggio![=Bed']"_cresc."!arpeggio![cec']!arpeggio![cff'] | %4
 !arpeggio![Bge']!>(!!arpeggio![c_g=ae']!arpeggio![Bfbd']!>)!!<(!!arpeggio![B=e=g_d']!arpeggio![_Af_ac']!<)!"_cresc."!arpeggio![cgb=e'] | %5
 !arpeggio!.[caf'])!p!(!arpeggio![cac']!arpeggio![=Ba=b]!arpeggio![cac']!arpeggio![_da_d']!arpeggio![cac'] | %6
 !arpeggio!.[cgbg'])(!arpeggio![cgbc']!arpeggio![=Bg_b=b]!arpeggio![cg_bc']!arpeggio![_dgb_d']!arpeggio![cgbc'] | %7
 !arpeggio![cac'a']!arpeggio![_eb_e'g']!arpeggio![fc'e'f']!arpeggio![e_c'e'f']!arpeggio![dbf']!arpeggio![dag'] | %8
 !arpeggio!.[ege'])(!arpeggio![e_ge']!arpeggio![dfd']) (!arpeggio![B=g_d']!arpeggio![Aac'])(!arpeggio![Af=d'] | %9
 !arpeggio![Gee'])!p!(!arpeggio![Beb]!arpeggio![Be=a]!arpeggio![Beb]!arpeggio![Bec']!arpeggio![Beb] | %10
 !arpeggio!.[Baf'])(!arpeggio![Bab]!arpeggio![B_a=a]!arpeggio![B_ab]!arpeggio![Bac']!arpeggio![Bab] | %11
 !arpeggio!.[Bgbg'])(!arpeggio![Bdbd']!arpeggio![Bebe']!arpeggio![=Bed']"_cresc."!arpeggio![cec']!arpeggio![cff'] | %12
 !arpeggio![Bge']!>(!!arpeggio![c_g=ae']!arpeggio![Bfbd']!>)!!<(!!arpeggio![B=e=g_d']"_cresc."!arpeggio![_Af_ac']!<)!!arpeggio![cgb=e'] | %13
 !arpeggio!.[caf'])!p!!<(!(!arpeggio![cac']!arpeggio![=Ba=b]!<)!!arpeggio![cac']!>(!!arpeggio![_da_d']!arpeggio![cac']!>)! | %14
 !arpeggio!.[cgbg'])(!arpeggio![cgbc']!arpeggio![=Bg_b=b]!arpeggio![cg_bc']!arpeggio![_dgb_d']!arpeggio![cgbc'] | %15
 !arpeggio![cac'a']!arpeggio![_eb_e'g']!arpeggio![fc'e'f']!arpeggio![e_c'e'f']!arpeggio![dbf']!arpeggio![dag'] | %16
 !arpeggio!.[ege'])(!arpeggio![e_ge']!arpeggio![_cge']!arpeggio![A_f_d']!arpeggio![_Ge_g]!arpeggio![G_db] | %17
 !arpeggio!.[_Ge_c'])(!arpeggio![Ge_g]!arpeggio![Fef]!arpeggio![Geg]!arpeggio![Ge_a]!arpeggio![G_d__b] | %18
 !arpeggio![_G=c__b]!arpeggio![Gca]!arpeggio![Gc=g]!arpeggio![Gca])(!arpeggio![A_g_d']!arpeggio![Age'] | %19
 !arpeggio!.[A_f_f'])(!arpeggio![Afa]!arpeggio![=Gf=g]!arpeggio![Afa]"_cresc."!arpeggio![Afb]!arpeggio![Ae_c'] | %20
 !arpeggio![A=d_c']!arpeggio![Adb]!arpeggio![_Ad=a]!arpeggio![Adb])(!arpeggio![B_ae']!arpeggio![Baf'] | %21
!<(! !arpeggio!.[B_g_g'])(!arpeggio![Bgb]!arpeggio![=Ag=a]!arpeggio![Bgb]!arpeggio![B_f_c']!arpeggio![Bf_d']!<)! | %22
 !arpeggio!.[_Gee'])!<(!(!arpeggio![Ge_g]!arpeggio![=Fe=f]!arpeggio![Geg]!arpeggio![Gea]!arpeggio![G_db]!<)! | %23
 !arpeggio!.[E_c_c'])(!arpeggio![Ece]"_cresc."!arpeggio![=Dc=d]!arpeggio![Ece]!arpeggio![_Fc_f]!arpeggio![Ece] | %24
"^con forza" !arpeggio![=E_c=e]!arpeggio![=Fc=f]!arpeggio![Ece]!arpeggio![Fcf]!arpeggio![_G=c_g]!arpeggio![_Ec_e] | %25
[Q:1/4=42] .[DBd])"_dolce"[Q:1/4=76] (!arpeggio![_Afb]!arpeggio![A=eb]!arpeggio![Afb]!>(!!arpeggio![A=gb]!arpeggio![Adb]!>)! | %26
!pp![Q:1/4=72] !arpeggio!.[G_eb])[Q:1/4=69] (!arpeggio![=Aec'][Q:1/4=66]!arpeggio![Ae=b][Q:1/4=63]!arpeggio![Aec'][Q:1/4=57][Q:1/4=60]!arpeggio![Ae=d']!arpeggio![Aec'] | %27
 !arpeggio!.[dbf'])!p![Q:1/4=76] (!arpeggio![_Afb]!arpeggio![A=eb]!arpeggio![Afb] (3(!arpeggio![Agb]!arpeggio![Aab]!arpeggio![Adb]) | %28
 !arpeggio!.[G_eb])!pp! (!arpeggio![=Aec']!arpeggio![Ae=b]!arpeggio![Aec']!arpeggio![Aed']!arpeggio![Aec'] | %29
 !arpeggio!.[dbf'])!p! (!arpeggio![_Afb]!arpeggio![A=eb]!arpeggio![Afb]"_cresc."!arpeggio![Agb]!arpeggio![Afb] | %30
 !arpeggio!.[=A_g_c'])(!arpeggio![Agc']!arpeggio![Afc']!arpeggio![Agc']!arpeggio![=A_ac']!arpeggio![Agc'] | %31
 !arpeggio!.[B=g=c'])(!arpeggio![Bgc']!arpeggio![B^fc']!arpeggio![Bgc']!arpeggio![B=ac']!arpeggio![Bgc'] | %32
 !arpeggio!.[cf=ac'])[Q:1/4=72]!<(! !arpeggio![d_af'][Q:1/4=68]!arpeggio![^ca=e']"_rit."[Q:1/4=64]!arpeggio![daf']!<)![Q:1/4=60]!>(!!arpeggio![d=c'a']!>)![Q:1/4=56]!arpeggio![dbg'] | %33
[Q:1/4=76]"^a tempo" !arpeggio!.[Bge']!p!(!arpeggio![Bgb]!arpeggio![Bg=a]!arpeggio![Bgb]{/d'}!arpeggio![Bgc']!arpeggio![Bgb] | %34
 !arpeggio!.[Baf'])(!arpeggio![Bab]!arpeggio![B_a=a]!arpeggio![B_ab]{/d'}!arpeggio![Bac']!arpeggio![Bab] | %35
 !arpeggio!.[Bgbg'])(!arpeggio![Bdbd']!arpeggio![Bebe'])(!arpeggio![=Bed']"_cresc."!arpeggio![cec']!arpeggio![cff'] | %36
 !arpeggio![Bge'])(!arpeggio![c_g=ae']!arpeggio![Bfbd']!arpeggio![B=e=g_d']!arpeggio![_Af_ac']!arpeggio![cgb=e'] | %37
 !arpeggio!.[caf'])!p!(!arpeggio![cac']!arpeggio![=Ba=b]!arpeggio![cac']{/e'}!arpeggio![_da_d']!arpeggio![cac'] | %38
 !arpeggio!.[cgbg'])(!arpeggio![cgbc']!arpeggio![=Bg_b=b]!arpeggio![cg_bc']{/e'}!arpeggio![_dgb_d']!arpeggio![cgbc'] | %39
 !arpeggio![cac'a']!arpeggio![_eb_e'g']!arpeggio![fc'e'f']!arpeggio![e_c'e'f']!arpeggio![dbf']!arpeggio![dag']) | %40
 (!arpeggio![=ed'g']!arpeggio![e^c'g']!arpeggio![ec'g']!arpeggio![_e_d'g']!arpeggio![ed'_g']!arpeggio![e=c'g'] | %41
 !arpeggio![ec'_g']!arpeggio![dc'f']!arpeggio![dc'f']!arpeggio![d=bf']!arpeggio![dbf']!arpeggio![^cb=e'] | %42
 !arpeggio![^c=b=e']!arpeggio![c^ae']!arpeggio![cae']!arpeggio![=c_b_e']!arpeggio![cbe']!arpeggio![c=ae'] | %43
 !arpeggio![c=ae']!arpeggio![=Aec'])(!arpeggio![_Adc']!arpeggio![Adb]!arpeggio![Ad_a]!arpeggio![Adf] | %44
[Q:1/4=42] .[Ge])[Q:1/4=76] (!arpeggio![_dbe']!arpeggio![d=ae']!arpeggio![dbe']!arpeggio![dc'e']!arpeggio![dge'] | %45
 !arpeggio![cae'])(!arpeggio![=daf']!arpeggio![da=e']!arpeggio![daf']!arpeggio![dag']!arpeggio![daf'] | %46
[Q:1/4=42]!8va(! !arpeggio!.[ge'b'])!8va)![Q:1/4=76]!<(! (!arpeggio![_db_e']!arpeggio![d=ae']!arpeggio![dbe']!arpeggio![dc'e']!arpeggio![dge']!<)! | %47
 !arpeggio![cae']) (!arpeggio![=daf']!arpeggio![da=e']!arpeggio![daf']!arpeggio![dag']!arpeggio![daf'] | %48
!8va(! !arpeggio!.[ge'b'])!f!!<(!(!arpeggio![ae'_c'']!arpeggio![gd'=b']!<)!!>(!!arpeggio![g=e'=c'']!arpeggio![=a_e'c'']!arpeggio![_bd'_b']!>)! | %49
 !arpeggio!.[ge'g'])!<(! !arpeggio![_ae'_c'']!arpeggio![gd'=b']!<)!!>(!!arpeggio![g=e'=c'']!arpeggio![=a_e'c'']!arpeggio![_bd'_b']!>)! | %50
 !^![ge'g']4 (!>!g'>f' | e'2)!8va)! z2 (!>!g-(3g/f/e/ | %52
[Q:1/4=32] [Ge])!pp![Q:1/4=76]!<(! !arpeggio![EBg] !arpeggio![Geb] !arpeggio![Bge']!<)!!f! !arpeggio![ebg'] !arpeggio![Geb] | %53
 !arpeggio![Bge']2 z2[Q:1/4=40]!8va(!{/[db]} !>!b'2 |{/!fermata![ge']} !>!!fermata!e''6!8va)! |] %55
V:2
 z | %1
!ped! .A,, !arpeggio![E,B,G]!arpeggio![E,B,G]!arpeggio![E,B,G]!arpeggio![E,B,G]!arpeggio![E,B,G]!ped-up! | %2
!ped! !arpeggio![D,B,A]!arpeggio![D,B,A]!arpeggio![D,B,A]!arpeggio![D,B,A]!arpeggio![D,B,A]!arpeggio![D,B,A]!ped-up! | %3
!ped! !arpeggio![E,B,G]!ped-up!!ped!!arpeggio![F,B,DA]!ped-up!!ped!!arpeggio![G,B,EG]!ped-up!!ped!!arpeggio![G,,E,=B,]!ped-up!!ped!!arpeggio![A,,E,C]!ped-up!!ped!!arpeggio![=A,,F,E]!ped-up! | %4
!ped! !arpeggio![B,,G,E]!ped-up!!ped!!arpeggio![B,,_G,=A,E]!ped-up!!ped!!arpeggio![B,,F,B,D]!ped-up!!ped!!arpeggio![C,=G,B,=E]!ped-up!!ped!!arpeggio![C,_A,F]!ped-up!!ped!!arpeggio![C,G,CG]!ped-up! | %5
!ped! .F,, !arpeggio![F,CA]!arpeggio![F,CA]!arpeggio![F,CA]!arpeggio![F,CA]!arpeggio![F,CA]!ped-up! | %6
!ped! !arpeggio![=E,B,CG]!arpeggio![E,B,CG]!arpeggio![E,B,CG]!arpeggio![E,B,CG]!arpeggio![E,B,CG]!arpeggio![E,B,CG]!ped-up! | %7
 !arpeggio![F,A,CA][K:treble] !arpeggio![G,B,_EB]!arpeggio![A,Ec]!arpeggio![A,F_c]!arpeggio![B,FB]!arpeggio![B,FA] | %8
 !arpeggio![EG] !arpeggio![=A,_Gc]!arpeggio![B,FB][K:bass] !arpeggio![=E,_D=G]!arpeggio![F,CF]!arpeggio![B,,F,_A,=D] | %9
!ped! .E,, !arpeggio![E,B,G]!arpeggio![E,B,G]!arpeggio![E,B,G]!arpeggio![E,B,G]!arpeggio![E,B,G]!ped-up! | %10
!ped! !arpeggio![D,B,A]!arpeggio![D,B,A]!arpeggio![D,B,A]!arpeggio![D,B,A]!arpeggio![D,B,A]!arpeggio![D,B,A]!ped-up! | %11
!ped! !arpeggio![E,B,G]!ped-up!!ped!!arpeggio![F,B,DA]!ped-up!!ped!!arpeggio![G,B,EG]!ped-up!!ped!!arpeggio![G,,E,=B,]!ped-up!!ped!!arpeggio![A,,E,C]!ped-up!!ped!!arpeggio![=A,,F,E]!ped-up! | %12
!ped! !arpeggio![B,,G,E]!ped-up!!ped!!arpeggio![B,,_G,=A,E]!ped-up!!ped!!arpeggio![B,,F,B,D]!ped-up!!ped!!arpeggio![C,=G,B,=E]!ped-up!!ped!!arpeggio![C,_A,F]!ped-up!!ped!!arpeggio![C,G,CG]!ped-up! | %13
!ped! .F,, !arpeggio![F,CA]!arpeggio![F,CA]!arpeggio![F,CA]!arpeggio![F,CA]!arpeggio![F,CA]!ped-up! | %14
!ped! !arpeggio![=E,B,CG]!arpeggio![E,B,CG]!arpeggio![E,B,CG]!arpeggio![E,B,CG]!arpeggio![E,B,CG]!arpeggio![E,B,CG]!ped-up! | %15
 !arpeggio![F,A,CA][K:treble] !arpeggio![G,B,_EB]!arpeggio![A,Ec]!arpeggio![A,F_c]!arpeggio![B,FB]!arpeggio![B,FA] | %16
 !arpeggio![EG][K:bass] !arpeggio![E,B,_G]!arpeggio![E,_CG]!arpeggio![_F,_D_F]!arpeggio![_G,CE]!arpeggio![G,DF] | %17
!ped! !arpeggio![_C,_G,E]!arpeggio![C,G,E]!arpeggio![C,G,E]!arpeggio![D,G,E]!ped-up!!ped!!arpeggio![=A,,G,E]!arpeggio![A,,G,_D]!ped-up! | %18
!ped! !arpeggio![_A,,_G,=C]!arpeggio![A,,G,C]!arpeggio![A,,G,C]!arpeggio![A,,G,C]!arpeggio![=C,A,_G]!arpeggio![C,A,G]!ped-up! | %19
!ped! !arpeggio![_D,A,_F]!arpeggio![D,A,F]!arpeggio![D,A,F]!arpeggio![D,A,F]!ped-up!!ped!!arpeggio![_C,A,F]!arpeggio![C,A,E]!ped-up! | %20
!ped! !arpeggio![B,,A,=D]!arpeggio![B,,A,D]!arpeggio![B,,A,D]!arpeggio![B,,A,D]!ped-up!!ped!!arpeggio![=D,B,F]!arpeggio![D,B,F]!ped-up! | %21
"_segue"!ped! !arpeggio![E,B,_G]!arpeggio![E,B,G]!arpeggio![E,B,G]!arpeggio![E,B,G]!ped-up!!ped!!arpeggio![_D,B,_F]!arpeggio![D,B,F]!ped-up! | %22
!ped! !arpeggio![_C,_G,E]!arpeggio![C,G,E]!arpeggio![C,G,E]!arpeggio![C,G,E]!ped-up!!ped!!arpeggio![B,,G,E]!arpeggio![B,,G,_D]!ped-up! | %23
!ped! !arpeggio![A,,E,_C]!arpeggio![A,,E,C]!arpeggio![A,,=D,C]!arpeggio![A,,E,C]!ped-up!!ped!!arpeggio![A,,_F,C]!arpeggio![A,,E,C]!ped-up! | %24
!ped! !arpeggio![A,,=E,_C]!arpeggio![A,,=F,C]!arpeggio![A,,E,C]!arpeggio![A,,F,C]!ped-up!!ped!!arpeggio![=A,,_G,=C]!arpeggio![A,,_E,C]!ped-up! | %25
 .[B,,,B,,]!ped! !arpeggio![B,,F,D]!arpeggio![B,,F,D]!arpeggio![B,,F,D]!arpeggio![B,,F,_E]!arpeggio![B,,F,F]!ped-up! | %26
!ped! !arpeggio![B,,G,E]!ped-up!!ped!!arpeggio![B,,_G,E]!arpeggio![B,,G,E]!arpeggio![B,,G,E]!ped-up!!ped!!arpeggio![B,,F,E]!arpeggio![B,,F,E]!ped-up! | %27
!ped! .B,,, !arpeggio![B,,F,D]!arpeggio![B,,F,^C]!arpeggio![B,,F,D]!arpeggio![B,,F,_E]!arpeggio![B,,F,F]!ped-up! | %28
!ped! !arpeggio![B,,G,E]!ped-up!!ped!!arpeggio![B,,_G,E]!arpeggio![B,,G,E]!arpeggio![B,,G,E]!ped-up!!ped!!arpeggio![B,,F,E]!arpeggio![B,,F,E]!ped-up! | %29
!ped! .B,,, !arpeggio![B,,F,D]!arpeggio![B,,F,^C]!arpeggio![B,,F,D]!arpeggio![B,,F,E]!arpeggio![B,,F,D]!ped-up! | %30
!ped! !arpeggio![B,,_G,E]!arpeggio![B,,G,E]!arpeggio![B,,G,=D]!arpeggio![B,,G,E]!arpeggio![B,,G,F]!arpeggio![B,,G,E]!ped-up! | %31
!ped! !arpeggio![B,,=G,=E]!arpeggio![B,,G,E]!arpeggio![B,,G,^D]!arpeggio![B,,G,E]!arpeggio![B,,G,=F]!arpeggio![B,,G,E]!ped-up! | %32
!ped! !arpeggio![C,F,=A,_E]!ped-up!!ped!!arpeggio![B,,F,_A,D]!arpeggio![B,,F,A,D]!arpeggio![B,,F,A,D]!arpeggio![B,,F,A,D]!arpeggio![B,,F,A,D]!ped-up! | %33
!ped! .E,, !arpeggio![E,B,G]!arpeggio![E,B,G]!arpeggio![E,B,G]!arpeggio![E,B,G]!arpeggio![E,B,G]!ped-up! | %34
!ped! !arpeggio![D,B,A]!arpeggio![D,B,A]!arpeggio![D,B,A]!arpeggio![D,B,A]!arpeggio![D,B,A]!arpeggio![D,B,A]!ped-up! | %35
!ped! !arpeggio![E,B,G]!ped-up!!ped!!arpeggio![F,B,DA]!ped-up!!ped!!arpeggio![G,B,EG]!ped-up!!ped!!arpeggio![G,,E,=B,]!ped-up!!ped!!arpeggio![A,,E,C]!ped-up!!ped!!arpeggio![=A,,F,E]!ped-up! | %36
!ped! !arpeggio![B,,G,E]!ped-up!!ped!!arpeggio![B,,_G,=A,E]!ped-up!!ped!!arpeggio![B,,F,B,D]!ped-up!!ped!!arpeggio![C,=G,B,=E]!ped-up!!ped!!arpeggio![C,_A,F]!ped-up!!ped!!arpeggio![C,G,CG]!ped-up! | %37
!ped! .F,, !arpeggio![F,CA]!arpeggio![F,CA]!arpeggio![F,CA]!arpeggio![F,CA]!arpeggio![F,CA]!ped-up! | %38
!ped! !arpeggio![=E,B,CG]!arpeggio![E,B,CG]!arpeggio![E,B,CG]!arpeggio![E,B,CG]!arpeggio![E,B,CG]!arpeggio![E,B,CG]!ped-up! | %39
 !arpeggio![F,A,CA][K:treble] !arpeggio![G,B,_EB]!arpeggio![A,Ec]!arpeggio![A,F_c]!arpeggio![B,FB]!arpeggio![B,FA] | %40
 !arpeggio![B,=EGd]!arpeggio![B,EG^c]!arpeggio![=A,EGc]!arpeggio![A,_E_G_d]!arpeggio![A,EGd]!arpeggio![_A,EG=c] | %41
 !arpeggio![A,E_Gc]!arpeggio![A,DFc]!arpeggio![A,DFc]!arpeggio![=G,DF=B]!arpeggio![G,DFB]!arpeggio![G,^C=EB] | %42
 !arpeggio![G,^C=E=B]!arpeggio![^F,CE^A]!arpeggio![F,CEA]!arpeggio![_G,=C_E_B]!arpeggio![G,CEB]!arpeggio![=F,CE=A] | %43
[K:bass] !arpeggio![F,CE=A]!arpeggio![F,CF]!ped!!arpeggio![B,,F,_A,D]!arpeggio![B,,F,A,D]!arpeggio![B,,F,A,D]!arpeggio![B,,F,A,D]!ped-up! | %44
!ped! .E,, !arpeggio![E,G][E,DG][E,DG][E,DG][E,B,DG]!ped-up! | %45
!ped! !arpeggio![E,CA]!ped-up!!ped!!arpeggio![E,_CA]!arpeggio![E,CA]!arpeggio![E,CA]!ped-up!!ped!!arpeggio![E,B,A]!arpeggio![E,B,A]!ped-up! | %46
!ped! .E,, !arpeggio![E,G][E,DG][E,DG][E,DG][E,B,DG]!ped-up! | %47
!ped! !arpeggio![E,CA]!ped-up!!ped!!arpeggio![E,_CA]!arpeggio![E,CA]!arpeggio![E,CA]!ped-up!!ped!!arpeggio![E,B,A]!arpeggio![E,B,A]!ped-up! | %48
 !arpeggio![E,B,G][K:treble] !arpeggio![A,E_c]!arpeggio![G,DF=B]!arpeggio![=C=E_B]!arpeggio![F,C_E=A]!arpeggio![_B,F_Ad] | %49
 !arpeggio!.[EGe] !arpeggio![_A,E_c]!arpeggio![G,DF=B]!arpeggio![=C=E_B]!arpeggio![F,C_E=A]!arpeggio![_B,F_Ad] | %50
 !arpeggio!.[EBe]!p!!<(! !arpeggio![B,Ge]!arpeggio![=A,^Fe]!arpeggio![B,Ge]!arpeggio![_C_Ae]!<)!!f!!>(!!arpeggio![B,Ad] | %51
 !arpeggio!.[EGe]!>)![K:bass]"^smorz."!pp! !arpeggio![B,,G,E]!<(!!arpeggio![=A,,^F,E]!arpeggio![B,,G,E]!arpeggio![_C,_A,E]!<)!!>(!!arpeggio![B,,A,D] | %52
!ped! .E,,!>)! !arpeggio![G,,E,B,] !arpeggio![B,,G,E] !arpeggio![E,B,G] !arpeggio![G,EB] !arpeggio![B,,G,E] | %53
 !arpeggio![E,B,G]2!ped-up! z2!ped!{/[B,FA]} !>!B,,2!ped-up! | %54
!ped!{/!fermata![E,B,G]} !>!!fermata!E,,6!ped-up! |] %55
V:3
 x | x6 | x6 | x6 | x6 | x6 | x6 | x[K:treble] x5 | x3[K:bass] x3 | x6 | x6 | x6 | x6 | x6 | x6 | %15
 x[K:treble] x5 | x[K:bass] x5 | x6 | x6 | x6 | x6 | x6 | x6 | x6 | x6 | x6 | x6 | x6 | x6 | x6 | %30
 x6 | x6 | x6 | x6 | x6 | x6 | x6 | x6 | x6 | x[K:treble] x5 | x6 | x6 | x6 |[K:bass] x6 | %44
 x B,4- x | x6 | x B,4- x | x6 | x[K:treble] x5 | x6 | x6 | x[K:bass] x5 | x6 | x6 | x6 |] %55
V:4
 x | x6 | x6 | x6 | x6 | x6 | x6 | x6 | x6 | x6 | x6 | x6 | x6 | x6 | x6 | x6 | x6 | x6 | x6 | x6 | %20
 x6 | x6 | x6 | x6 | x6 | x6 | x6 | x6 | x6 | x6 | x6 | x6 | x6 | x6 | x6 | x6 | x6 | x6 | x6 | %39
 x6 | x6 | x6 | x6 | x6 | x6 | x6 |!8va(! x!8va)! x5 | x6 |!8va(! x6 | x6 | x4 (a2 | %51
 g2)!8va)! x2 A2 | x6 | x4!8va(! x2 | x6!8va)! |] %55

